X:115
T:le reel des menteries
C:Normand Miron
S:le Bruit Court Dans la Ville CD
M:4/4
L:1/8
K:D
A,DDA, D2DD | CDEF GECE | A,DDA, D2DD | CDEF GECE |
A,DDA, D2DD | CDEF GECE | D2FA dAFD |1 EDCE D4 :|2 EDCE DDAF |:
d3d dfed | cABc BAFA | dcBA FADF | EDCD EABc |
d3d dfed | cABc BAFA | dcBA FADF |1 EDCD EABc :|2 EDCE D4 |]
